src/topics/icons/mono.svg

<svg height="329" preserveAspectRatio="xMidYMid" viewBox="0 0 256 329" width="256" xmlns="http://www.w3.org/2000/svg"><g fill="#1a1918"><path d="m239.967274 0h-223.9335089c-8.8547774 0-16.0337651 7.1779629-16.0337651 16.0327578v84.5709272l50.3910912-14.0774927 33.5417681 13.9091857-27.4494984-13.9091857s-19.3074251-10.5524055-22.7057563-24.3867888c-3.3972923-13.8333443 13.8166943-29.6198758 13.8166943-29.6198758l62.2660301 7.9654713-33.8711079-6.3779873s11.8801338-7.9124859 38.5992659-7.0522524c29.322685.9423089 70.638746 8.3540309 77.456187 15.1725243 6.819519 6.8195322 19.526639 52.8742315 12.221941 60.1820604-3.431577 3.430545-47.253531-7.3234128-47.253531-7.3234128l36.557774 11.5902958s20.274666 46.531568 7.449109 86.552166c0 0-27.910782-15.146551-50.008766-45.054211 18.311094 38.320909 48.293497 50.609366 48.293497 50.609366s-11.271322 30.340893-17.798903 36.867447l-106.3466768-45.725359-53.9909743 66.07279h218.7991301c8.855816 0 16.032726-7.179002 16.032726-16.033796v-223.9318722c0-8.8547949-7.17691-16.0327578-16.032726-16.0327578"/><g transform="translate(0 275)"><path d="m44.9203082 28.0745916v17.2621417c0 2.7269196-.6269173 4.7734137-1.8797001 6.1342645-1.2538346 1.3618944-2.9094853 2.0444069-4.9637966 2.0444069-1.9933025 0-3.6079301-.6825125-4.8449348-2.0444069-1.2359527-1.3608508-1.854455-3.4073449-1.854455-6.1342645v-20.6872278c0-3.2654157-.1136025-5.8003133-.3376518-7.6088673-.2240493-1.8054232-.8320329-3.2873313-1.8218469-4.4446806-.990866-1.1583929-2.5560555-1.7365458-4.6966205-1.7365458-4.2832337 0-7.1043616 1.4589489-8.4623318 4.3758032-1.3600739 2.9168542-2.0374812 7.1016791-2.0374812 12.553431v17.5480873c0 2.694568-.6185023 4.7327134-1.855507 6.1102618-1.2370046 1.3775483-2.86846221 2.0684096-4.89121722 2.0684096-1.99330252 0-3.62476014-.6908613-4.89437288-2.0684096-1.26961274-1.3775484-1.90178942-3.4156938-1.90178942-6.112349v-37.14579958c0-2.44201751.5690642-4.29648977 1.70929635-5.5644604s2.64125732-1.90352134 4.507283-1.90352134c1.79975758 0 3.30078274.59485042 4.50517927 1.78559485 1.2043965 1.18970084 1.8081726 2.83127927 1.8081726 4.9257789v1.23770631c2.274153-2.69665523 4.708191-4.68053355 7.3031659-5.94954778 2.5949748-1.27005782 5.4771114-1.90665212 8.6495654-1.90665212 3.298679 0 6.1345332.65224826 8.5054587 1.953614 2.3709255 1.30032214 4.3242568 3.2685465 5.8631495 5.9025859 2.206833-2.66639091 4.5714473-4.64087686 7.0980503-5.92763223 2.5244992-1.28362459 5.3235377-1.92856767 8.3939599-1.92856767 3.5795296 0 6.664678.69921014 9.2554453 2.09554322 2.5886636 1.39633309 4.524113 3.39586537 5.8042445 5.99650965 1.1149872 2.34809379 1.6745845 6.04138429 1.6745845 11.08300249v25.347933c0 2.7269196-.6227098 4.7713265-1.8681294 6.1342645-1.2443678 1.3618944-2.8863442 2.0444069-4.9280329 2.0444069-1.9785763 0-3.5974114-.6908613-4.8565054-2.0684096-1.2622496-1.3775484-1.8902188-3.4156938-1.8902188-6.1102618v-21.8278795c0-2.7884918-.1220175-5.0249207-.3618449-6.7040686-.2408793-1.6801915-.8877822-3.0921786-1.9438644-4.2338739-1.0560822-1.1416954-2.6559836-1.7114995-4.800756-1.7114995-1.7303339 0-3.3691546.5071883-4.9227735 1.5226084-1.5536189 1.0143765-2.7611711 2.3762708-3.6237083 4.0877703-.9614135 2.189467-1.4400164 6.0559947-1.4400164 11.6048011"/><path d="m137.246504 27.1614441c0 3.8686149-.609035 7.433543-1.820795 10.6989587-1.213863 3.2654157-2.970494 6.0716486-5.269892 8.4176552-2.298346 2.3460066-5.045843 4.1462118-8.238282 5.3974848-3.194544 1.2491859-6.787748 1.8774314-10.777508 1.8774314-3.960308 0-7.520904-.6365943-10.68284-1.9035213-3.1619348-1.2679706-5.8999646-3.0848734-8.2140889-5.4486211-2.3151762-2.3647913-4.0718069-5.1574575-5.2688403-8.3779985-1.1980852-3.2194974-1.79555-6.783382-1.79555-10.6864356 0-3.9333179.6058798-7.5358155 1.8197432-10.804362 1.2117596-3.267503 2.9526122-6.0601691 5.220454-8.37591136 2.2678418-2.31574224 5.0153385-4.1002935 8.240386-5.35469736 3.225048-1.25336027 6.785644-1.8805622 10.680736-1.8805622 3.959256 0 7.55246.63555071 10.777508 1.90560853 3.226099 1.27214502 5.98727 3.08174261 8.285617 5.43192355 2.299398 2.35018094 4.047613 5.14493434 5.245699 8.38321654 1.197033 3.2414129 1.797653 6.8136462 1.797653 10.7198307zm-13.148433 0c0-5.296256-1.173892-9.4174214-3.515365-12.36454-2.342525-2.9471185-5.489734-4.422765-9.442679-4.422765-2.551848 0-4.798653.6574663-6.742517 1.9723988-1.943864 1.3170197-3.440682 3.2570669-4.4925567 5.8253597-1.0518747 2.5682927-1.5778121 5.5644604-1.5778121 8.9895465 0 3.3916909.5175224 6.3565506 1.5525671 8.8924919 1.0360967 2.5359413 2.5192397 4.4780757 4.4483777 5.8253597 1.927035 1.347284 4.199084 2.0204042 6.811941 2.0204042 3.952945 0 7.100154-1.481908 9.442679-4.4457241 2.341473-2.9638162 3.515365-7.0630661 3.515365-12.2925317z"/><path d="m159.493654 7.90916246v1.56957023c2.299398-3.01390879 4.813378-5.2284221 7.544045-6.64040914 2.728563-1.41094345 5.865253-2.11745877 9.411123-2.11745877 3.446993 0 6.528986.74512842 9.242823 2.23747245 2.713836 1.49234403 4.741851 3.60145402 6.082991 6.33150436.861485 1.58731141 1.420031 3.30194161 1.674584 5.13971631.254554 1.8409055.383935 4.1889993.383935 7.0442813v24.1780605c0 2.6027314-.599569 4.5699122-1.79555 5.9036295-1.19493 1.3305864-2.750653 1.997445-4.665065 1.997445-1.948072 0-3.525884-.6835561-4.737643-2.0464941-1.21176-1.3639816-1.818692-3.3144648-1.818692-5.8545804v-21.6567296c0-4.2818794-.599568-7.5577311-1.797653-9.8265115-1.199138-2.2677368-3.586893-3.4031705-7.163267-3.4031705-2.33411 0-4.457845.6908613-6.375412 2.0704969-1.916516 1.3796355-3.321821 3.2758516-4.214862 5.6865612-.641644 1.9369165-.960362 5.5529809-.960362 10.8523676v16.2769859c0 2.6340394-.612191 4.6085253-1.836573 5.925545s-2.804298 1.9755295-4.742903 1.9755295c-1.876544 0-3.416489-.6835561-4.625093-2.0464941-1.207552-1.3639816-1.81238-3.3144648-1.81238-5.8545804v-37.55488974c0-2.47436902.540664-4.3215361 1.620939-5.54358845 1.081327-1.22100875 2.558159-1.83255673 4.433652-1.83255673 1.144439 0 2.178432.27029168 3.100926.80878785.920391.54058336 1.659859 1.34937121 2.2163 2.42740714.554338 1.08012313.834137 2.39714283.834137 3.95210269"/><path d="m255.943199 27.1614441c0 3.8686149-.607984 7.433543-1.819743 10.6989587-1.214916 3.2654157-2.970495 6.0716486-5.269893 8.4176552-2.298346 2.3460066-5.045842 4.1462118-8.238282 5.3974848-3.194543 1.2491859-6.787747 1.8774314-10.777508 1.8774314-3.96136 0-7.520904-.6365943-10.682839-1.9035213-3.161936-1.2679706-5.901017-3.0848734-8.21409-5.4486211-2.315176-2.3647913-4.071807-5.1574575-5.269892-8.3779985-1.197033-3.2194974-1.79555-6.783382-1.79555-10.6864356 0-3.9333179.606932-7.5358155 1.820795-10.804362 1.21176-3.267503 2.951561-6.0601691 5.220454-8.37591136 2.267842-2.31574224 5.014287-4.1002935 8.240386-5.35469736 3.225048-1.25336027 6.785644-1.8805622 10.680736-1.8805622 3.959256 0 7.55246.63555071 10.777508 1.90560853 3.225048 1.27214502 5.986219 3.08174261 8.285617 5.43192355 2.298346 2.35018094 4.047614 5.14493434 5.244647 8.38321654 1.198085 3.2414129 1.797654 6.8136462 1.797654 10.7198307zm-13.148434 0c0-5.296256-1.17284-9.4174214-3.515365-12.36454-2.341473-2.9471185-5.488682-4.422765-9.441627-4.422765-2.551848 0-4.799704.6574663-6.742517 1.9723988-1.943864 1.3170197-3.441734 3.2570669-4.493608 5.8253597-1.051875 2.5682927-1.577812 5.5644604-1.577812 8.9895465 0 3.3916909.518574 6.3565506 1.553619 8.8924919 1.035044 2.5359413 2.518188 4.4780757 4.447326 5.8253597 1.927034 1.347284 4.200135 2.0204042 6.812992 2.0204042 3.952945 0 7.100154-1.481908 9.441627-4.4457241 2.342525-2.9638162 3.515365-7.0630661 3.515365-12.2925317z"/></g></g></svg>

<?xml version="1.0" encoding="UTF-8" standalone="no"?>
<svg width="256px" height="329px" viewBox="0 0 256 329" version="1.1" xmlns="http://www.w3.org/2000/svg" xmlns:xlink="http://www.w3.org/1999/xlink" preserveAspectRatio="xMidYMid">
	<g fill="#1A1918">
		<path d="M239.967274,0 L16.0337651,0 C7.1789877,0 0,7.1779629 0,16.0327578 L0,100.603685 L50.3910912,86.5261923 L83.9328593,100.435378 L56.4833609,86.5261923 C56.4833609,86.5261923 37.1759358,75.9737868 33.7776046,62.1394035 C30.3803123,48.3060592 47.5942989,32.5195277 47.5942989,32.5195277 L109.860329,40.484999 L75.9892211,34.1070117 C75.9892211,34.1070117 87.8693549,26.1945258 114.588487,27.0547593 C143.911172,27.9970682 185.227233,35.4087902 192.044674,42.2272836 C198.864193,49.0468158 211.571313,95.1015151 204.266615,102.409344 C200.835038,105.839889 157.013084,95.0859312 157.013084,95.0859312 L193.570858,106.676227 C193.570858,106.676227 213.845524,153.207795 201.019967,193.228393 C201.019967,193.228393 173.109185,178.081842 151.011201,148.174182 C169.322295,186.495091 199.304698,198.783548 199.304698,198.783548 C199.304698,198.783548 188.033376,229.124441 181.505795,235.650995 L75.1591182,189.925636 L21.1681439,255.998426 L239.967274,255.998426 C248.82309,255.998426 256,248.819424 256,239.96463 L256,16.0327578 C256,7.1779629 248.82309,0 239.967274,0"></path>
		<g transform="translate(0.000000, 275.000000)">
			<path d="M44.9203082,28.0745916 L44.9203082,45.3367333 C44.9203082,48.0636529 44.2933909,50.110147 43.0406081,51.4709978 C41.7867735,52.8328922 40.1311228,53.5154047 38.0768115,53.5154047 C36.083509,53.5154047 34.4688814,52.8328922 33.2318767,51.4709978 C31.995924,50.110147 31.3774217,48.0636529 31.3774217,45.3367333 L31.3774217,24.6495055 C31.3774217,21.3840898 31.2638192,18.8491922 31.0397699,17.0406382 C30.8157206,15.235215 30.207737,13.7533069 29.217923,12.5959576 C28.227057,11.4375647 26.6618675,10.8594118 24.5213025,10.8594118 C20.2380688,10.8594118 17.4169409,12.3183607 16.0589707,15.235215 C14.6988968,18.1520692 14.0214895,22.3368941 14.0214895,27.788646 L14.0214895,45.3367333 C14.0214895,48.0313013 13.4029872,50.0694467 12.1659825,51.4469951 C10.9289779,52.8245434 9.29752029,53.5154047 7.27476528,53.5154047 C5.28146276,53.5154047 3.65000514,52.8245434 2.3803924,51.4469951 C1.11077966,50.0694467 0.478602979,48.0313013 0.478602979,45.3346461 L0.478602979,8.18884652 C0.478602979,5.74682901 1.04766718,3.89235675 2.18789933,2.62438612 C3.32813148,1.35641549 4.82915665,0.720864782 6.69518233,0.720864782 C8.49493991,0.720864782 9.99596507,1.3157152 11.2003616,2.50645963 C12.4047581,3.69616047 13.0085342,5.3377389 13.0085342,7.43223853 L13.0085342,8.66994484 C15.2826872,5.97328961 17.7167252,3.98941129 20.3117001,2.72039706 C22.9066749,1.45033924 25.7888115,0.813744935 28.9612655,0.813744935 C32.2599445,0.813744935 35.0957987,1.4659932 37.4667242,2.76735894 C39.8376497,4.06768108 41.790981,6.03590544 43.3298737,8.66994484 C45.5367067,6.00355393 47.901321,4.02906798 50.427924,2.74231261 C52.9524232,1.45868802 55.7514617,0.813744935 58.8218839,0.813744935 C62.4014135,0.813744935 65.4865619,1.51295508 68.0773292,2.90928816 C70.6659928,4.30562125 72.6014422,6.30515353 73.8815737,8.90579781 C74.9965609,11.2538916 75.5561582,14.9471821 75.5561582,19.9888003 L75.5561582,45.3367333 C75.5561582,48.0636529 74.9334484,50.1080598 73.6880288,51.4709978 C72.443661,52.8328922 70.8016846,53.5154047 68.7599959,53.5154047 C66.7814196,53.5154047 65.1625845,52.8245434 63.9034905,51.4469951 C62.6412409,50.0694467 62.0132717,48.0313013 62.0132717,45.3367333 L62.0132717,23.5088538 C62.0132717,20.720362 61.8912542,18.4839331 61.6514268,16.8047852 C61.4105475,15.1245937 60.7636446,13.7126066 59.7075624,12.5709113 C58.6514802,11.4292159 57.0515788,10.8594118 54.9068064,10.8594118 C53.1764725,10.8594118 51.5376518,11.3666001 49.9840329,12.3820202 C48.430414,13.3963967 47.2228618,14.758291 46.3603246,16.4697905 C45.3989111,18.6592575 44.9203082,22.5257852 44.9203082,28.0745916"></path>
			<path d="M137.246504,27.1614441 C137.246504,31.030059 136.637469,34.5949871 135.425709,37.8604028 C134.211846,41.1258185 132.455215,43.9320514 130.155817,46.278058 C127.857471,48.6240646 125.109974,50.4242698 121.917535,51.6755428 C118.722991,52.9247287 115.129787,53.5529742 111.140027,53.5529742 C107.179719,53.5529742 103.619123,52.9163799 100.457187,51.6494529 C97.2952522,50.3814823 94.5572224,48.5645795 92.2430981,46.2008318 C89.9279219,43.8360405 88.1712912,41.0433743 86.9742578,37.8228333 C85.7761726,34.6033359 85.1787078,31.0394513 85.1787078,27.1363977 C85.1787078,23.2030798 85.7845876,19.6005822 86.998451,16.3320357 C88.2102106,13.0645327 89.9510632,10.2718666 92.218905,7.95612434 C94.4867468,5.6403821 97.2342435,3.85583084 100.459291,2.60142698 C103.684339,1.34806671 107.244935,0.720864782 111.140027,0.720864782 C115.099283,0.720864782 118.692487,1.35641549 121.917535,2.62647331 C125.143634,3.89861833 127.904805,5.70821592 130.203152,8.05839686 C132.50255,10.4085778 134.250765,13.2033312 135.448851,16.4416134 C136.645884,19.6830263 137.246504,23.2552596 137.246504,27.1614441 L137.246504,27.1614441 Z M124.098071,27.1614441 C124.098071,21.8651881 122.924179,17.7440227 120.582706,14.7969041 C118.240181,11.8497856 115.092972,10.3741391 111.140027,10.3741391 C108.588179,10.3741391 106.341374,11.0316054 104.39751,12.3465379 C102.453646,13.6635576 100.956828,15.6036048 99.9049533,18.1718976 C98.8530786,20.7401903 98.3271412,23.736358 98.3271412,27.1614441 C98.3271412,30.553135 98.8446636,33.5179947 99.8797083,36.053936 C100.915805,38.5898773 102.398948,40.5320117 104.328086,41.8792957 C106.255121,43.2265797 108.52717,43.8996999 111.140027,43.8996999 C115.092972,43.8996999 118.240181,42.4177919 120.582706,39.4539758 C122.924179,36.4901596 124.098071,32.3909097 124.098071,27.1614441 L124.098071,27.1614441 Z"></path>
			<path d="M159.493654,7.90916246 L159.493654,9.47873269 C161.793052,6.4648239 164.307032,4.25031059 167.037699,2.83832355 C169.766262,1.4273801 172.902952,0.720864782 176.448822,0.720864782 C179.895815,0.720864782 182.977808,1.4659932 185.691645,2.95833723 C188.405481,4.45068126 190.433496,6.55979125 191.774636,9.28984159 C192.636121,10.877153 193.194667,12.5917832 193.44922,14.4295579 C193.703774,16.2704634 193.833155,18.6185572 193.833155,21.4738392 L193.833155,45.6518997 C193.833155,48.2546311 193.233586,50.2218119 192.037605,51.5555292 C190.842675,52.8861156 189.286952,53.5529742 187.37254,53.5529742 C185.424468,53.5529742 183.846656,52.8694181 182.634897,51.5064801 C181.423137,50.1424985 180.816205,48.1920153 180.816205,45.6518997 L180.816205,23.9951701 C180.816205,19.7132907 180.216637,16.437439 179.018552,14.1686586 C177.819414,11.9009218 175.431659,10.7654881 171.855285,10.7654881 C169.521175,10.7654881 167.39744,11.4563494 165.479873,12.835985 C163.563357,14.2156205 162.158052,16.1118366 161.265011,18.5225462 C160.623367,20.4594627 160.304649,24.0755271 160.304649,29.3749138 L160.304649,45.6518997 C160.304649,48.2859391 159.692458,50.260425 158.468076,51.5774447 C157.243694,52.8944644 155.663778,53.5529742 153.725173,53.5529742 C151.848629,53.5529742 150.308684,52.8694181 149.10008,51.5064801 C147.892528,50.1424985 147.2877,48.1920153 147.2877,45.6518997 L147.2877,8.09700996 C147.2877,5.62264094 147.828364,3.77547386 148.908639,2.55342151 C149.989966,1.33241276 151.466798,0.720864782 153.342291,0.720864782 C154.48673,0.720864782 155.520723,0.991156464 156.443217,1.52965263 C157.363608,2.07023599 158.103076,2.87902384 158.659517,3.95705977 C159.213855,5.0371829 159.493654,6.3542026 159.493654,7.90916246"></path>
			<path d="M255.943199,27.1614441 C255.943199,31.030059 255.335215,34.5949871 254.123456,37.8604028 C252.90854,41.1258185 251.152961,43.9320514 248.853563,46.278058 C246.555217,48.6240646 243.807721,50.4242698 240.615281,51.6755428 C237.420738,52.9247287 233.827534,53.5529742 229.837773,53.5529742 C225.876413,53.5529742 222.316869,52.9163799 219.154934,51.6494529 C215.992998,50.3814823 213.253917,48.5645795 210.940844,46.2008318 C208.625668,43.8360405 206.869037,41.0433743 205.670952,37.8228333 C204.473919,34.6033359 203.875402,31.0394513 203.875402,27.1363977 C203.875402,23.2030798 204.482334,19.6005822 205.696197,16.3320357 C206.907957,13.0645327 208.647758,10.2718666 210.916651,7.95612434 C213.184493,5.6403821 215.930938,3.85583084 219.157037,2.60142698 C222.382085,1.34806671 225.942681,0.720864782 229.837773,0.720864782 C233.797029,0.720864782 237.390233,1.35641549 240.615281,2.62647331 C243.840329,3.89861833 246.6015,5.70821592 248.900898,8.05839686 C251.199244,10.4085778 252.948512,13.2033312 254.145545,16.4416134 C255.34363,19.6830263 255.943199,23.2552596 255.943199,27.1614441 L255.943199,27.1614441 Z M242.794765,27.1614441 C242.794765,21.8651881 241.621925,17.7440227 239.2794,14.7969041 C236.937927,11.8497856 233.790718,10.3741391 229.837773,10.3741391 C227.285925,10.3741391 225.038069,11.0316054 223.095256,12.3465379 C221.151392,13.6635576 219.653522,15.6036048 218.601648,18.1718976 C217.549773,20.7401903 217.023836,23.736358 217.023836,27.1614441 C217.023836,30.553135 217.54241,33.5179947 218.577455,36.053936 C219.612499,38.5898773 221.095643,40.5320117 223.024781,41.8792957 C224.951815,43.2265797 227.224916,43.8996999 229.837773,43.8996999 C233.790718,43.8996999 236.937927,42.4177919 239.2794,39.4539758 C241.621925,36.4901596 242.794765,32.3909097 242.794765,27.1614441 L242.794765,27.1614441 Z"></path>
		</g>
	</g>
</svg>
